X:1
T:Battle Cry of Freedom
T:George Frederick Root  1862 slightly arranged by BarryP
T:Public Domain
T:Public Domain
T:Public Domain
Z:Public Domain
%%score { ( 1 3 ) | ( 2 4 ) }
L:1/8
Q:1/4=72
M:4/4
K:Bb
V:1 treble nm="Piano"
V:3 treble 
V:2 bass 
V:4 bass 
V:1
"^Simplice (  ~72)  gradually growing" (Bc | dd d>c B2) (G>A | BB B>A G4) | (F2 F>E DF B>c | %4
 d4 c2) (Bc | dd d>c B2) (G>A | BB B>A G4) | (F2 F>E DF B>d | c4 B2)[Q:1/4=78]"^78" f z | %9
[Q:1/4=72]"^72""^LH is not good.  May change..." f2 d>e f g2 f | f2 d>e f4 | f2 d>e f2 g2 | %12
 f2 d>B c2 ([DB][_Ec] | dd d>c B2) (G>A | BB B>A G4) | (F2 F>E DF B>d | %16
 c4[Q:1/4=65]"^65" !fermata!B2)!f!"^2nd time" ([DB][Q:1/4=72]"^72"[Ec] x6 | %17
 [Fd][Fd] [Fd]>[Ec] [DGB]2) (G>A |[Q:1/4=75]"^75" [DB][DB] [DB]>[CA] [B,G]4) | %19
[Q:1/4=80]"^80" ([DF]2 [DF]>[CE] [B,D][DF] [DB]>[Ec] | [Fd]4 [Fc]2)[Q:1/4=84]"^84" ([DB][Ec] | %21
 [Fd][Fd] [Fd]>[Ec] [DGB]2) (G>A | [DB][DB] [DB]>[CA] [B,G]4) | %23
[Q:1/4=87]"^87" ([DF]2 [DF]>[CE] [B,D]F [DB]>d | [Fc]4 [DB]2)[Q:1/4=72]"^72" f2 | %25
[Q:1/4=80]"^Grandioso  ( ~80)" [FBdf]2 [DFBd]>[Ee] [FBdf] [GBdg]2 [Ff] | %26
 [FBdf]2 [Dd]>[Ee] [FBdf]4 |[Q:1/4=75]"^75" [FAdf]2 [DFAd]>[Ee] [FBdf]2 [GBdg]2 | %28
 [FBdf]2 [Dd]>[B,B] [CFAc]2 ([DB][Ec] |[Q:1/4=82]"^82" [Fd][Fd] [Fd]>[Ec] [DGB]2) (G>A | %30
 [DB][DB] [DB]>[CA] [B,G]4) | ([DF]2 [DF]>[CE] [B,D]F [DB]>d | %32
 [Fc]4[Q:1/4=75]"^75" [DB]2)"^3rd time - Finale"[Q:1/4=82]"^82" ([DB][Ec] | %33
!ff! [Fd][Fd] [Fd]>[Ec] [DGB]2) (G>A | [DB][DB] [DB]>[CA] [B,G]4) | %35
[Q:1/4=87]"^87" ([DF]2 [DF]>[CE] [B,D][DF] [DB]>[Ec] | [Fd]4 [FAc]2) ([DB][Ec] | %37
 [Fd][Fd] [Fd]>[Ec] [DGB]2) (G>A | [DB][DB] [DB]>[CA] [B,G]4) | %39
 [DF]2 [DF]>[CE] [B,D][DF] [DB]>[Ed] | [Fc]4 [DB]2[Q:1/4=72]"^72" [Ff]2 | %41
[Q:1/4=82]"^82" [FBdf]2 [DFBd]>[Ee] [FBdf] [GBdg]2 [Ff] | [FBdf]2 [Dd]>[Ee] [FBdf]4 | %43
 [FAdf]2 [DFAd]>[Ee] [FBdf]2 [GBdg]2 | %44
 [FBdf]2 [Dd]>[B,B] [CFAc]2[Q:1/4=70]"^70"!<(! ([DB][Ec]!<)! | [Fd][Fd] [Fd]>[Ec] [DGB]2) (G>A | %46
 [DB][DB] [DB]>[CA][Q:1/4=62]"^62" !fermata![B,G]4) | ([DF]2 [DF]>[CE] [B,D]F [DB]>d | %48
 [EAc]4 [DB]2) [fbd'f']2 | [fbd'f']2 [dfbd'][efbe'] [fbd'f'] [gbd'g']2 [_gbd'_g'] | %50
 [fbd'f']2 !>!B,2 !>!B,2 !>!B,2 |!8va(! [d'f'b'd'']2 z2 z4!8va)! |] %52
V:2
!mp! z2 | z8 | z8 | z8 | z8 | z8 | z8 | z8 | z8 | z8 | z8 | z8 |!mf! z8 | (B,4 G,4) | %14
 (D,4 E,3) D,/C,/ | B,,4 B,,3/2B,,/4C,/4 D,3/2D,/4E,/4 | F,2 F,>F, B,2 z2 x6 | %17
 [B,,B,]2 [B,,B,]2 [G,,G,]4 | [D,,D,]2 [D,,D,]2 [E,,E,]3 [D,,D,]/[C,,C,]/ | %19
 [B,,,B,,]2 [B,,,B,,]2 [B,,,B,,]2 [D,,D,]2 | F,6 z2 | [B,,B,]2 [B,,B,]2 [G,,G,]4 | %22
 [D,,D,]2 [D,,D,]2 [E,,E,]3 [D,,D,]/[C,,C,]/ | [B,,,B,,]2 [B,,,B,,]2 [B,,,B,,]2 [D,,D,]2 | %24
 F,,2 F,,>F,, B,,2 z2 | %25
!ff!!ped! [B,,,B,,]2 [B,,D,F,]2!ped-up!!ped! [D,F,B,]2!ped-up!!ped! [F,B,D]2!ped-up! | %26
!ped! [B,,,B,,]2 [B,,D,F,]2!ped-up!!ped! [D,F,B,]4!ped-up! | %27
!fff!!ped! [D,,,D,,]2 [D,,F,,A,,D,]2!ped-up!!ped! [G,,,G,,]2 [G,,B,,D,G,]2!ped-up! | %28
 [C,,C,]2 [C,=E,G,B,]2 [F,,F,][E,,_E,][D,,D,][C,,C,] |!f! [B,,B,]2 [B,,B,]2 [G,,G,]4 | %30
 [D,,D,]2 [D,,D,]2 [E,,E,]3 [D,,D,]/[C,,C,]/ | [B,,,B,,]2 [B,,,B,,]2 [B,,,B,,]2 [D,,D,]2 | %32
 F,,2 F,,>F,, B,,2 z2 | %33
!ped! [B,,,B,,][B,,B,]!ped-up!!ped![A,,A,][D,F,]!ped-up!!ped! [G,,G,].[B,,D,]/.[B,,D,]/ z2!ped-up! | %34
!ped! [G,,G,].[B,,D,]/.[B,,D,]/!ped-up!!ped! !arpeggio![D,,A,,^F,]2!ped-up!!ped! [E,,E,].[G,B,]/.[G,B,]/ [B,E][G,B,]!ped-up! | %35
!ped! [B,,,B,,].[B,,D,F,]/.[B,,D,F,]/ [D,F,B,][B,,D,F,]!ped-up!!ped! [B,,,B,,].[B,,D,F,]/.[B,,D,F,]/ [D,F,B,][B,,D,F,]!ped-up! | %36
!ped! [B,,,B,,].[B,,D,F,]/.[B,,D,F,]/ [D,F,B,][F,B,D]!ped-up!!ped! [F,,,F,,]2 z2!ped-up! | %37
!ped! [B,,,B,,][B,,B,]!ped-up!!ped![A,,A,][D,F,]!ped-up!!ped! [G,,G,].[B,,D,]/.[B,,D,]/ z2!ped-up! | %38
!ped! [G,,G,].[B,,D,]/.[B,,D,]/!ped-up!!ped! !arpeggio![D,,A,,^F,]2!ped-up!!ped! [E,,E,].[G,B,]/.[G,B,]/ [B,E][G,B,]!ped-up! | %39
!ped! [B,,,B,,].[B,,D,F,]/.[B,,D,F,]/ [D,F,B,][B,,D,F,]!ped-up!!ped! [B,,,B,,].[B,,D,F,]/.[B,,D,F,]/ [D,F,B,][B,,D,F,]!ped-up! | %40
!ped! [F,,,F,,].[F,,A,,C,]/.[F,,A,,C,]/ [A,,C,F,][F,,A,,C,]!ped-up!!ped! [B,,,B,,]2 z2!ped-up! | %41
 [B,,,B,,]2 [B,,D,F,]2 [D,F,B,]2 [F,B,D]2 | [B,,,B,,]2 [B,,D,F,]2 [D,F,B,]4 | %43
 [D,,,D,,]2 [D,,F,,A,,D,]2 [G,,,G,,]2 [G,,B,,D,G,]2 | %44
 [C,,C,]2 [C,=E,G,B,]2 [F,,F,][E,,_E,][D,,D,][C,,C,] | %45
!fff!!ped! [B,,,B,,]2 [B,,D,F,B,]2!ped-up! [G,,,G,,]2 z2 | %46
 [G,,,G,,]2 !arpeggio![D,,A,,^F,]2 [E,,B,,E,]4 | [D,,D,]2 [G,,,G,,]2 [G,,B,,D,G,]2 [C,,G,,=E,]2 | %48
!ped! [F,,,F,,]2 .[A,,C,F,]>.[A,,C,F,]!ped-up!!ped! [B,,,B,,]2!fff! z2!ped-up! | z8 | %50
!ped! z2 !>![B,,,B,,]2 !>![B,,,B,,]2 !>![B,,,B,,]2 | z8!ped-up! |] %52
V:3
 x2 | (F4 G2) z2 | (D4 E2) z D/C/ | B,4 B,3/2B,/4C/4 D2 | F2 F>F F2 z2 | (F4 G2) z2 | %6
 (D4 E2) z (D/C/ | B,4) B,3/2B,/4C/4 D2 | F2 F>F F2 z z | B2 A2 B2 F2 | D2 F2 B4 | B2 A2 B4 | %12
 BG=EC F2 x2 | F4 D4 | D4 E4 | D4 B,4 | F4 D2 x2 x4 z2 | x8 | x8 | x8 | x6 x2 | x8 | x8 | x8 | x8 | %25
 x8 | x8 | x8 | x8 | x8 | x8 | x8 | x6 x2 | x8 | x8 | x8 | x8 | x8 | x8 | x8 | x8 | x8 | x8 | x8 | %44
 x8 | x8 | x8 | x8 | x6 [FBd]2 | [FBd]2 [DFB][EFB] [FBd] [GBd]2 [_GBd] | [FBd]2 x2 x4 | %51
!8va(! [FBdf]2 z2 z4!8va)! |] %52
V:4
 x2 | x8 | x8 | x8 | x8 | x8 | x8 | x8 | x8 | x8 | x8 | x8 | x8 | x8 | x8 | x8 | x14 | x8 | x8 | %19
 x8 | F,,2 F,,>F,, F,,2 z2 | x8 | x8 | x8 | F,6 z2 | x8 | x8 | x8 | x8 | x8 | x8 | x8 | F,6 x2 | %33
 x8 | x8 | x8 | x8 | x8 | x8 | x8 | x8 | x8 | x8 | x8 | x8 | x8 | x8 | x8 | x8 | x8 | x8 | %51
 x2 x2 x2 x2 |] %52

